X: 117
T: Hambleton's Rant
%%VWML:Wrights-3753-p59-0
F: http://www.vwml.org/record/Wrights/3753/p59
%R: strathspey
B: Daniel Wright "Wright's Compleat Collection of Celebrated Country Dances" 1740 p.59
S: http://library.efdss.org/cgi-bin/dancebooks.cgi
Z: 2014 John Chambers <jc:trillian.mit.edu>
M: C|
L: 1/16
K: G
%-------------------------
[|\
GGG2 Bcd2 B3AG3c | A3GF2f2 A3GF2A2 |\
GGG2 Bcd2 B3AG3c | A2F2c2G2 G4d4 |]
[|\
B2d2 d2ef g2d2 BcdB | g2d2 Bcd2 f2c2 ABc2 |\
B2d2 d2ef gfed edcB | cBAG A2F2 G4 e4 |]
%-------------------------
%%begintext align
%% The two Men take hands and fall back then meet
%% their Partners and turn S. the two We. doin[g]
%% the like afterwards All four take Hands &
%% go half round and turn S. then half round
%% and back again then the double figure and
%% the 1st Cu. lead down the middle.
%%endtext
%-------------------------
%%sep 2 4 300
T: Tweed Side
T: Longways for as many as will.
%R: minuet
B: Daniel Wright "Wright's Compleat Collection of Celebrated Country Dances" 1740 p.59
S: http://library.efdss.org/cgi-bin/dancebooks.cgi
Z: 2014 John Chambers <jc:trillian.mit.edu>
M: 3/4
L: 1/8
K: A
%-------------------------
cB |\
A2E2F2 | F3B (A/B/c) |\
B4cB | A2E2F2 |\
A3B cB | A4 |] cd |\
e2(dc)(BA) | e2(fe)(dc) |
B4cd | e2c2A2 |\
AGABcd | e4 (f/g/a) |\
e2(dc)(BA) | f2(ed)(cd) |\
B4AB | c2(dc)(BA) | d2B3A | A4 |] % - - - - - - - - - - - - - - - - - - - - - - - - - %%begintext align
%% First Man dance the minuet step with 2d Wo. .|
%% Right and Left with the 3d Cu. :| then the 1st man
%% turn the 3d Wo. and the 1st Wo. with the 2d man
%% and then his own Partner .| then the 1st man
%% turn the 2d Wo. and the 1st Wo. the 3d Man
%% and then turn Partners :|
%%endtext
%-------------------------
%%sep 2 4 300
